X: 08001
T: ABELL'S REEL
C: Bob McQuillen 28 Mar 91
B: Bob's Note Book 8 #1
R: reel
Z: 2005/2021 John Chambers <jc:trillian.mit.edu>
M: C
L: 1/8
K: D
A2 \
| dABd AGFA | dfeg fdfa | geag fAdf | efge cABc |
| dABd AGFA | dfeg fdfa | geag fAdf | gecA d2 :|
|: de \
| "D"fded "F#m"cAFA | "G"BGBd "D"AFDF | "G"GBAG "Bm"FAdf | "Em"gfed "A7"dAde |
| "D"fded "F#m"cAFA | "G"BGBd "D"AFDF | "G"GBAG "D"FAdf | "A7"gece "D"d2 :|
%%begintext align
%% I'd like to send my thanks down to Chris Abell of Concord, MA, for a lot of
%% hard work. He made All of Sarah Bauhan's beautiful whistles and rebuilt
%% part of her great Haines wooden flute, so I guess it would be fair to say
%% that he has been (forgive me!) instrumental to her success. I hope this
%% tune sounds OK in your shop, Chris!
%%endtext

%%sep 1 1 500

%%sep 1 1 500

